X:840
T:Reel 840
M:4/4
K:Cmaj
L:1/8
c>C (3CCC E>G (3GAB |cege fedB|c>C (3CCC E>G (3GAB |cedc BGAB|cC (3CCC E>C (3CCC |GcBc dGdf| (3efg fd ecdB|cGAG ECC2| (3GAG EG AGEG|cBGA B2EG| (3AAA  (3BAG AFGA|FGAF B2GF| (3EDC GC ACGC| (3EDC GA B2de|fefd BcdB| (3ABc GE ECC2| (3efe ce  (3efe ce| (3fed Bd  (3dBd Bd| (3efe ce  (3efe cA|BGAB cBcd| (3efe ce  (3efe ce| (3fed Bd  (3ded Bd|efge  (3
